Sweet-Rainbow/icons/distributor-logo-archlinux.svg

<?xml version="1.0" encoding="UTF-8" standalone="no"?>
<!-- Generator: Gravit.io -->

<svg
   xmlns:dc="http://purl.org/dc/elements/1.1/"
   xmlns:cc="http://creativecommons.org/ns#"
   xmlns:rdf="http://www.w3.org/1999/02/22-rdf-syntax-ns#"
   xmlns:svg="http://www.w3.org/2000/svg"
   xmlns="http://www.w3.org/2000/svg"
   xmlns:sodipodi="http://sodipodi.sourceforge.net/DTD/sodipodi-0.dtd"
   xmlns:inkscape="http://www.inkscape.org/namespaces/inkscape"
   style="isolation:isolate"
   viewBox="0 0 36 36"
   width="48"
   height="48"
   version="1.1"
   id="svg11"
   sodipodi:docname="distributor-logo-archlinux.svg"
   inkscape:version="0.92.4 (5da689c313, 2019-01-14)">
  <metadata
     id="metadata17">
    <rdf:RDF>
      <cc:Work
         rdf:about="">
        <dc:format>image/svg+xml</dc:format>
        <dc:type
           rdf:resource="http://purl.org/dc/dcmitype/StillImage" />
        <dc:title></dc:title>
      </cc:Work>
    </rdf:RDF>
  </metadata>
  <defs
     id="defs15" />
  <sodipodi:namedview
     pagecolor="#ffffff"
     bordercolor="#666666"
     borderopacity="1"
     objecttolerance="10"
     gridtolerance="10"
     guidetolerance="10"
     inkscape:pageopacity="0"
     inkscape:pageshadow="2"
     inkscape:window-width="640"
     inkscape:window-height="480"
     id="namedview13"
     showgrid="false"
     inkscape:zoom="29.365243"
     inkscape:cx="25.325443"
     inkscape:cy="32"
     inkscape:current-layer="svg11"
     units="px" />
  <linearGradient
     id="_lgradient_18"
     x1="0"
     y1="0.5"
     x2="1"
     y2="0.5"
     gradientTransform="matrix(40,0,0,40,4,4)"
     gradientUnits="userSpaceOnUse">
    <stop
       offset="0%"
       stop-opacity="1"
       style="stop-color:rgb(84,51,255)"
       id="stop2" />
    <stop
       offset="51.73913043478261%"
       stop-opacity="1"
       style="stop-color:rgb(32,189,255)"
       id="stop4" />
    <stop
       offset="98.26086956521739%"
       stop-opacity="1"
       style="stop-color:rgb(165,254,203)"
       id="stop6" />
  </linearGradient>
  <g
     id="g825"
     transform="matrix(0.9,0,0,0.9,-3.6,-3.6)">
    <path
       id="path9"
       d="m 23.997,4.001 c -1.781,4.365 -2.855,7.22 -4.838,11.455 1.216,1.288 2.708,2.788 5.131,4.483 C 21.685,18.867 19.908,17.791 18.58,16.674 16.043,21.968 12.067,29.508 4,44 c 6.341,-3.66 10.756,-5.916 15.336,-6.777 -0.196,-0.846 -0.308,-1.761 -0.3,-2.715 l 0.007,-0.203 c 0.1,-4.062 2.758,-7.3 5.216,-7.305 2.459,-0.006 4.85,4.011 4.749,8.072 -0.019,0.764 -0.105,1.499 -0.256,2.181 4.531,0.886 8.993,3.137 15.248,6.747 -1.233,-2.27 -2.334,-4.316 -3.385,-6.265 -1.656,-1.284 -3.383,-2.954 -6.907,-4.762 2.422,0.63 4.156,1.355 5.507,2.167 C 28.527,15.244 27.662,12.6 23.996,4"
       inkscape:connector-curvature="0"
       style="fill:url(#_lgradient_18);fill-rule:evenodd" />
  </g>
</svg>

<?xml version="1.0" encoding="UTF-8" standalone="no"?><!-- Generator: Gravit.io --><svg xmlns="http://www.w3.org/2000/svg" xmlns:xlink="http://www.w3.org/1999/xlink" style="isolation:isolate" viewBox="0 0 48 48" width="48pt" height="48pt"><linearGradient id="_lgradient_18" x1="0" y1="0.5" x2="1" y2="0.5" gradientTransform="matrix(40,0,0,40,4,4)" gradientUnits="userSpaceOnUse"><stop offset="0%" stop-opacity="1" style="stop-color:rgb(84,51,255)"/><stop offset="51.73913043478261%" stop-opacity="1" style="stop-color:rgb(32,189,255)"/><stop offset="98.26086956521739%" stop-opacity="1" style="stop-color:rgb(165,254,203)"/></linearGradient><path d=" M 23.997 4.001 C 22.216 8.366 21.142 11.221 19.159 15.456 C 20.375 16.744 21.867 18.244 24.29 19.939 C 21.685 18.867 19.908 17.791 18.58 16.674 C 16.043 21.968 12.067 29.508 4 44 C 10.341 40.34 14.756 38.084 19.336 37.223 C 19.14 36.377 19.028 35.462 19.036 34.508 L 19.043 34.305 C 19.143 30.243 21.801 27.005 24.259 27 C 26.718 26.994 29.109 31.011 29.008 35.072 C 28.989 35.836 28.903 36.571 28.752 37.253 C 33.283 38.139 37.745 40.39 44 44 C 42.767 41.73 41.666 39.684 40.615 37.735 C 38.959 36.451 37.232 34.781 33.708 32.973 C 36.13 33.603 37.864 34.328 39.215 35.14 C 28.527 15.244 27.662 12.6 23.996 4" fill-rule="evenodd" fill="url(#_lgradient_18)"/></svg>
